svg/recho-logo.svg

<?xml version="1.0" encoding="UTF-8"?>
<svg width="15px" height="123px" viewBox="0 0 15 123" version="1.1" xmlns="http://www.w3.org/2000/svg" xmlns:xlink="http://www.w3.org/1999/xlink">
    <!-- Generator: Sketch 45.2 (43514) - http://www.bohemiancoding.com/sketch -->
    <title>recho-logo</title>
    <desc>Created with Sketch.</desc>
    <defs></defs>
    <g id="Symbols" stroke="none" stroke-width="1" fill="none" fill-rule="evenodd">
        <g id="recho-logo">
            <g id="logo">
                <path d="M6,60 C6.09028398,82.6419354 6.09028398,97.4572738 6,104.446015 C5.90971602,111.434756 5.64268667,117.289741 5.19891196,122.010968 L9.80108804,122.010968 C9.35577288,117.170497 9.08874353,111.315513 9,104.446015 C8.91125647,97.5765176 8.91125647,82.7611793 9,60 L6,60 Z" id="Path" fill="#FFFFFF" fill-rule="nonzero"></path>
                <path d="M5.53810682,0.938350469 C5.63891361,1.11198257 5.7145187,2.99111391 5.76492209,6.57574448 C5.81019207,9.79529219 5.87809703,18.1224283 5.96863697,31.5571527 C5.97987086,32.3560939 6.66548544,33.0037637 7.5,33.0037637 C8.33451456,33.0037637 9.02012914,32.3560939 9.03136303,31.5571527 C9.12681642,18.2971474 9.19840646,9.97001132 9.24613315,6.57574448 C9.29407983,3.16583304 9.36599983,1.2867017 9.46189318,0.938350469 L5.53810682,0.938350469 Z" id="Path" fill="#FFFFFF" fill-rule="nonzero"></path>
                <g id="fader-unit" transform="translate(0.000000, 23.000000)" stroke="#FFFFFF" stroke-width="3">
                    <rect id="Rectangle" x="2.25226828" y="2.49133398" width="10.4954634" height="30.017332" rx="5.24773172"></rect>
                    <path d="M1.20211706,17.5 L13.7978829,17.5" id="Line-2-Copy"></path>
                    <path d="M1.20211706,25.5 L13.7978829,25.5" id="Line-2-Copy-2"></path>
                </g>
            </g>
        </g>
    </g>
</svg>

<?xml version="1.0" encoding="utf-8"?>
<!-- Generator: Adobe Illustrator 16.0.0, SVG Export Plug-In . SVG Version: 6.00 Build 0)  -->
<!DOCTYPE svg PUBLIC "-//W3C//DTD SVG 1.1//EN" "http://www.w3.org/Graphics/SVG/1.1/DTD/svg11.dtd">
<svg version="1.1" id="图层_1" xmlns="http://www.w3.org/2000/svg" xmlns:xlink="http://www.w3.org/1999/xlink" x="0px" y="0px"
	 width="15px" height="123px" viewBox="0 0 15 123" enable-background="new 0 0 15 123" xml:space="preserve">
<title>recho-logo</title>
<desc>Created with Sketch.</desc>
<g id="recho-logo">
	<g id="logo">
		<path id="Path" d="M6,60c0.09,22.643,0.09,37.457,0,44.445c-0.09,6.989-0.357,12.844-0.801,17.565h4.602
			C9.355,117.17,9.089,111.315,9,104.445C8.911,97.576,8.911,82.762,9,60H6z"/>
		<path id="Path_1_" d="M5.538,0.938c0.101,0.173,0.176,2.053,0.227,5.637c0.045,3.22,0.113,11.547,0.204,24.981
			c0.011,0.799,0.697,1.447,1.531,1.447c0.834,0,1.52-0.648,1.531-1.447C9.127,18.297,9.198,9.97,9.246,6.576
			c0.048-3.41,0.12-5.289,0.216-5.637H5.538z"/>
		<g id="fader-unit" transform="translate(0.000000, 23.000000)">
			<path d="M7.5,34.009c-3.721,0-6.748-3.027-6.748-6.748V7.739c0-3.721,3.027-6.748,6.748-6.748s6.748,3.027,6.748,6.748v19.521
				C14.248,30.981,11.221,34.009,7.5,34.009z M7.5,3.991c-2.066,0-3.748,1.681-3.748,3.748v19.521c0,2.067,1.681,3.748,3.748,3.748
				s3.748-1.681,3.748-3.748V7.739C11.248,5.672,9.566,3.991,7.5,3.991z"/>
			<rect x="1.202" y="16" width="12.596" height="3"/>
			<rect x="1.202" y="24" width="12.596" height="3"/>
		</g>
	</g>
</g>
</svg>
